X:366
T:Boy's Lament for his Dragon
R:March
S: Kate Russum from JP Cormier, Boston WS 5/4/97
M:C|
L:1/8
%Q:160
K:D
A2|\
"D"A2 d2 d2 ef|Tg>fe<d f4|"G"g2 B2 B2 cd|"A"e>fe<c A4|
"D"A2 d2 d2 ef|Tg>fe<d f4|"G"Tg2 B2 "A7"Tf>ed<c|"D"d4 d2:|
|: fg |\
"D"a2 A2 A2 (3AB=c|"G"B2 G2 "D"TA4|A2 d2 A2 d2|"Em"e>dc<B "A7"A2 fg|
"D"a2 A2 A2 (3AB=c|"G"B2 G2 "D"TA4|A2 d2 "A"f>ed<c|"D"d4 d2:|
